X: 46
T:Ejercicio 7
M:3/4
L:1/8
K:C
GE AE BE | cE BE AE :||: GF AF BF | cF BF AF :||: GE AE BE | cE BE AE :|
|: FD GD AD | BD AD GD :||

